Sources/FrostedUI/Resources/Icons.xcassets/leaf20.imageset/leaf-20.svg

<svg width="20" height="20" viewBox="0 0 20 20" fill="none" xmlns="http://www.w3.org/2000/svg" data-fui-icon="true">
  <path
    fill-rule="evenodd"
    clip-rule="evenodd"
    d="M16.8651 2.26219C17.1074 2.21786 17.3561 2.2954 17.5303 2.46962C17.7045 2.64384 17.7821 2.89253 17.7378 3.13489L17.7362 3.14319L17.7321 3.16575L17.7159 3.25204C17.7016 3.32732 17.6806 3.43742 17.6531 3.57798C17.598 3.85908 17.517 4.26226 17.4127 4.75279C17.2044 5.73309 16.9025 7.06583 16.5289 8.47189C16.1559 9.87519 15.7078 11.3658 15.2049 12.6567C14.7143 13.9162 14.1312 15.096 13.447 15.7803C11.0783 18.149 7.34145 18.3157 4.78014 16.2805L3.53033 17.5303C3.23744 17.8232 2.76256 17.8232 2.46967 17.5303C2.17678 17.2374 2.17678 16.7625 2.46967 16.4696L3.71948 15.2198C1.68423 12.6585 1.85096 8.92165 4.21967 6.55294C4.90391 5.8687 6.08371 5.28562 7.34323 4.795C8.6341 4.29218 10.1248 3.84401 11.5281 3.47108C12.9341 3.09743 14.2669 2.79556 15.2472 2.58722C15.7377 2.48297 16.1409 2.40195 16.422 2.34689C16.5625 2.31936 16.6726 2.29831 16.7479 2.28408L16.8342 2.26789L16.8568 2.26371L16.8651 2.26219ZM12.3863 14.7196C10.6043 16.5017 7.81672 16.6653 5.84996 15.2106L8.56066 12.4999H11.75C12.1642 12.4999 12.5 12.1642 12.5 11.7499C12.5 11.3357 12.1642 10.9999 11.75 10.9999H10.0607L14.0303 7.03027C14.3232 6.73738 14.3232 6.2625 14.0303 5.96961C13.7374 5.67672 13.2626 5.67672 12.9697 5.96961L10.75 8.18928V7.54071C10.75 7.1265 10.4142 6.79071 10 6.79071C9.58579 6.79071 9.25 7.1265 9.25 7.54071V9.68928L7.19663 11.7427L7.24964 10.0231C7.2624 9.60904 6.93712 9.26307 6.52311 9.2503C6.10909 9.23754 5.76311 9.56282 5.75035 9.97684L5.64818 13.2911L4.7893 14.15C3.33461 12.1832 3.49828 9.39565 5.28033 7.6136C5.72367 7.17026 6.6389 6.67914 7.88768 6.19271C9.10511 5.71849 10.536 5.28678 11.9133 4.92077C13.2879 4.55549 14.5948 4.25937 15.559 4.05445C15.7339 4.01729 15.8973 3.98315 16.0478 3.95216C16.0168 4.1026 15.9827 4.26609 15.9455 4.44097C15.7406 5.40518 15.4445 6.71209 15.0792 8.08664C14.7132 9.46394 14.2815 10.8948 13.8072 12.1123C13.3208 13.361 12.8297 14.2763 12.3863 14.7196Z"
    fill="currentColor"
  />
</svg>

<svg xmlns="http://www.w3.org/2000/svg" width="20" height="20" fill="none" data-fui-icon="true" viewBox="0 0 20 20"><path fill="currentColor" fill-rule="evenodd" d="M16.865 2.262a.75.75 0 0 1 .873.873l-.002.008-.004.023-.016.086a59 59 0 0 1-.303 1.5c-.209.981-.51 2.314-.884 3.72-.373 1.403-.821 2.894-1.324 4.185-.49 1.26-1.074 2.439-1.758 3.123a6.526 6.526 0 0 1-8.667.5l-1.25 1.25a.75.75 0 1 1-1.06-1.06l1.25-1.25a6.526 6.526 0 0 1 .5-8.667c.684-.684 1.864-1.267 3.123-1.758 1.291-.503 2.782-.951 4.185-1.324a78 78 0 0 1 5.22-1.187l.086-.016.023-.004zM12.386 14.72a5.026 5.026 0 0 1-6.536.49l2.71-2.71h3.19a.75.75 0 1 0 0-1.5h-1.69l3.97-3.97a.75.75 0 0 0-1.06-1.06l-2.22 2.22v-.65a.75.75 0 0 0-1.5 0v2.15l-2.053 2.053.053-1.72a.75.75 0 1 0-1.5-.046l-.102 3.314-.859.859a5.026 5.026 0 0 1 .491-6.536c.444-.444 1.359-.935 2.608-1.421 1.217-.475 2.648-.906 4.025-1.272a76 76 0 0 1 4.135-.969 78 78 0 0 1-.969 4.135c-.366 1.377-.798 2.808-1.272 4.025-.486 1.249-.977 2.164-1.42 2.608" clip-rule="evenodd"/></svg>
